X:1
T:Nummela, 76.76.76 D
T:Nummela, 76.76.76 D
T:Charles Hutchinson Gabriel, 1902
T:Public Domain Courtesy of the Cyber Hymnal™
C:Charles Hutchinson Gabriel, 1902
Z:Public Domain
Z:Courtesy of the Cyber Hymnal™
%%score ( 1 2 ) ( 3 4 )
L:1/8
Q:1/4=100
M:3/4
K:F
V:1 treble 
V:2 treble 
V:3 bass 
V:4 bass 
V:1
 [CF]2 | [FA][FB] [FA]2 [EG]2 | F2 [EG]2 [FA]2 | [Fc][Gc] [Ac]2 [Bd]2 | [Ac]4 [FA]2 | %5
 [GB][Ac] [GB]2 [FA]2 | [EG]2 [FA]2 [GB]2 | [FA][EG] F2 [FG]2 | [EG]4 [CF]2 | %9
 [FA][FB] [FA]2 [EG]2 | F2 [EG]2 [FA]2 | [Fc][Gc] [Ac]2 [Bd]2 | [Ac]4 [Fc]2 | %13
 [Fd][Fd] [FB]2 [Fd]2 | [Fc]2 [Fc]2 [FA]2 | [Fc][FB] [FA]2 [EG]2 | F4 [FA]2 | %17
 [EG]3 [^D^F] [EG][=FA] | [GB]2 [EG]2 [Ed]2 | [Fc]3 [FB] [FA][GB] | [Ac]4 [Fc]2 | %21
 [Fd]3 [Fd] [FB][Fd] | [Fc]2 [Fc]2 [FA]2 | [Fc][FB] [FA]2 [CG]2 | [CF]4 |] %25
V:2
 x2 | x6 | F2 x4 | x6 | x6 | x6 | x6 | x2 F2 x2 | x6 | x6 | F2 x4 | x6 | x6 | x6 | x6 | x6 | %16
 F4 x2 | x6 | x6 | x6 | x6 | x6 | x6 | x6 | x4 |] %25
V:3
 [F,A,]2 | [F,C][F,D] [F,C]2 [C,B,]2 | [D,A,]2 [C,C]2 [F,C]2 | [F,A,][F,B,] [F,C]2 [F,F]2 | %4
 [F,F]4 [F,C]2 | [C,C][C,C] [C,C]2 [C,C]2 | [C,C]2 [C,C]2 [C,C]2 | [F,C][G,C] [A,C]2 [G,=B,]2 | %8
 (C2 _B,2) [F,A,]2 | [F,C][F,D] [F,C]2 [C,B,]2 | [D,A,]2 [C,C]2 [F,C]2 | %11
 [F,A,][F,B,] [F,C]2 [F,F]2 | [F,F]4 [F,A,]2 | [B,,B,][B,,B,] [B,,D]2 [B,,B,]2 | %14
 [F,A,]2 [F,A,]2 [F,C]2 | [A,,C][B,,D] [C,C]2 [C,B,]2 | [F,A,]4 [F,C]2 | [C,C]3 [C,C] [C,C][C,C] | %18
 [C,C]2 [C,C]2 [C,B,]2 | [F,A,]3 [F,D] [F,C][F,C] | [F,F]4 [F,A,]2 | %21
 [B,,B,]3 [B,,B,] [B,,D][B,,B,] | [F,A,]2 [F,A,]2 [F,C]2 | [A,,C][B,,D] [C,C]2 [C,B,]2 | [F,A,]4 |] %25
V:4
 x2 | x6 | x6 | x6 | x6 | x6 | x6 | x6 | C,4 x2 | x6 | x6 | x6 | x6 | x6 | x6 | x6 | x6 | x6 | x6 | %19
 x6 | x6 | x6 | x6 | x6 | x4 |] %25

